T: Reel De Gaspé
M: 4/4
L: 1/8
K: Dmaj
|:f2 ef e2d2|dBBd (3BcB A2|ecef gfed|cABc d2f2:||e2 cA e2 cA|BA^GB A4:||
